X:1
T:Evangelium in die Paschae
T:uit: Rhau, Officia Paschalis(1539)
T:Johannes Galliculus
T:(1490 - 1550)
%%score [ 1 2 3 4 ]
L:1/8
Q:1/4=180
M:4/2
K:F
V:1 treble nm="D."
V:2 treble nm="A."
V:3 treble-8 nm="T."
V:4 bass nm="B."
V:1
 F16 | E16 | F16 | G12 E4 x2 | F6 G2 E8 x14 | F12 E4 | E8 G16 | F8 x8 | z8 F8 x4 | G8 A8 x4 | %10
w: Do-|mi-|nus|vo- *||bis- *|* cum,||Et|cum spi-|
 G4 G8 F4 | G8 A12 | G2 F2 E8 G8 | D4 D4 x12 | F8 E8 x4 | z4 E4 F8 x4 | G4 G4 F8 x8 | %17
w: ri- tu *|tu- o,|* * Se- quen-|ti- a|san- cti|E- van-|ge- li- i|
 z4 F4 A6 G2 x8 | E6 F2 G2 A2 B4 | A8 B4 A2 G2 | F8 z8 x4 | A6 B2 c8 x4 | c6 B2 (3:2:2A8 G4 x8 | %23
w: se- cun- *|dum * * * *|Mar- cum , *||Glo- ri- a|ti- bi Do- mi-|
 A16- | A16 | G12 F4 | F16 | z8 c8 x2 | d8 c6 B2 x4 | A4 G2 F2 E4 E4 x4 | F8 z4 F4 | F4 F4 F4 F4 | %32
w: ne||Do- mi-|ne.|In|il- lo *|* * * tem- po-|re, Ma-|ri- a Mag- da-|
 (3:2:4G8 x5 F4 E4 x4 z57/32 | D16 x4 | E8 D8 x4 | C4 c8 B4 | c4 c4 B4 B4 | A4 G4 F8 | E8 z4 F4 | %39
w: le- * *|na|& Ma-|ri- a &|Sa- * * *|* * lo-|me e-|
 F4 E4 F8 x4 | G4 G4 F8 | z4 c8 B4 x4 | c4 A4 G8 x4 | F8 c8 | B4 (3:2:2c8 B4 A2 G2 x8 | %45
w: me- runt a-|ro- ma- ta,|vt ve-|ni- en- *|tes vn-|ge- rent * * *|
 F8"^*""^* semibreve in original" E8 | F8 G8 x8 | F8 z8 | z16 x4 | z16 | z16 x2 | z16 x2 | %52
w: |||||||
 z8 A12 x4 | A4 A8 z4 | A4 A4 A4 x4 | A8 F8 | z4 c4 c4 c4 | d6 c2 B4 A4 | G4 F8 E4 | F8 z4 D4 | %60
w: ve-|ni- unt|ad mo- nu-|men- tum|or- to iam|so- * * *|* * le,|* or-|
 D4 D4 E4 F6 x2 | E2 C4 D8 x2 | z4 A4 A4 A4 | B8 A4 G6 | F2 F8 E4 F8 | z4 c4 c4 c4 | B8 x8 | %67
w: to iam so- *|* le, *|or- to iam|so- * *|* * le, *|Et di- ce-|bant|
 A4 c8 B6 x2 | c2 A4 G8 F8 | G4 G4 F4 F4 | G8 D4 d4 | e4 c8 B4 x2 | c8 x10 | G8 F4 F4 | G8 D4 d4 | %75
w: * ad in-|* vi- cem, *|Quis re- vol- vet|no- bis la-|pi- dem *||ab os- ti-|o mo- nu-|
 e4 c8 B4 | c6 B2 A4 G4 | G2 F2 F8 E4 | F8 z8 x4 | z16 | z16 | z16 x4 | z8 c12 | B2 A2 G4 A8 | %84
w: men- * *|||ti?||||E-|* * rat quip-|
 B4 c6 A2 x4 | B2 A2 G2 F2 G8 | F8 z8 | z16 | z4 D8 E4 x4 | F4 E2 D2 x8 | C4 G8 A4 | B4 c4 x8 | %92
w: pe mag- nus|val- * * * *|de||val- *||||
 d16 | c16 | B16 | A12 G2 F2 | E16 ||"^Secunda pars" z16 | z16 | z16 x4 | z16 x59/4 | c8 c8 x2 | %102
w: ||||de.|||||Et in-|
 c4 c4 A8 x4 | B6 A2 G4 d6 x2 | c2 c8 B4 c8 | z8 z16 | z16 x4 | z4 c4 c4 c4 x4 | A6 B2 c4 B6 | %109
w: tro- e- un-||* * * tes|||in mo- nu-|men- * * *|
 A2 G2 F2 A4 G4 G2 x2 | F2 F8 E4 F8 | z16 x4 | z8 z4 A4 | B8 A8 | z8 z4 A8 | A4 A4 G2 F2 E4 | %116
w: |* * * tum,||se-|den- tem|co-|o- per- * * *|
 F4 x12 | G16 | G12 A4 | B6 A2 G4 F4 | E8 D4 F8 | E2 D2 E6 DE F16 | z16 x2 | z16 x2 | %124
w: |tum|sto- *|la * * *|can- di- *|* * * * * da,|||
 z8 z4 C4- x12 | C2 D2 E2 F2 G4 c4 x8 | B4 A8 G2 F2 x8 | E8 E8 x8 | F8 F4 F8 x4 | E2 D2 E6 DE F8 | %130
w: &|* * * * * ob-|ste- pu- e *|* runt,|Qui di- cit|il * * * * lis,|
 z4 c4 c4 c4 | c4 c4 x8 | d4 d4 c8 | z4 c8 c4 | d4 d4 c8 | z4 A8 A4 | B8 G6 A2 | B8 c2 B2 A2 G2 | %138
w: No- li- te|ex- pa-|ve- sce- re,|Ie- sum|que- ri- tis|Na- za-|re- num *|* cru- * * *|
 A4 F4- F4 E4 | F16 | z8 G8 | A16 | G16 | z8 A8 | B16 | A16- | A16 | B8 A8 | G16 | z4 A6 G2 F4 | %150
w: * ci- * fi-|xum,|Sur-|rex-|it,|sur-|rex-|it||non est|hic,|non * *|
 F4 E2 D2 E6 DE | F16 | z16 | z16 | z16 x4 | z16 | z16 x4 | A8 A8 x4 | A8 z4 A8 | A4 A4 A4 A4 x4 | %160
w: * * * est * *|hic,||||||Sed i-|te, di-|ci- te dis- ci-|
 A4 B4 B4 x8 | c8 c6 B2 x4 | A4 G2 F2 E6 F2 x8 | G2 C2 F8 E4 x4 | F16 x12 | E16 | z16 | z16 | z16 | %169
w: pu- lis e-|ius & *|Pe- * * * *|||tro||||
 z16 | z16 | F8 F4 F4 | G8 A8 | B2 A2 G2 F2 G8 | z4 A4 A2 B2 c2 A2 x8 | B2 G2 c8 B4 | c8 z16 | %177
w: ||qui- a pre-|ce- dit|vos * * * *|in Ga- * * *|* * li- le-|a,|
 z16 | c4 c4 d8 x8 | c4 A4 x8 | B4 B4 A8 | z16 | c4 c4 d8 | c4 A4 B4 B4 | A4 A4 B8 | G8 F8 | E16 | %187
w: |i- bi e-|um vi-|de- bi- tis,||i- bi e-|um vi- de- bi-|tis, si- cut|dix- it|vo-|
 F16- | F16 |] %189
w: bis.||
V:2
 C16 | C16 | C16 | D8 E4 C6 | A,2 B,4 C24 | z4 C4 D8 | E8 D8 x8 | C8 D8 | E8 z4 D8 | C4 D8 z4 x4 | %10
w: Do-|mi-|nus|vo- bis- *|* * cum,|Et cum|spi- ri-|tu- *||* o,|
 D4 F8 C4 | C4 E12 x4 | C4 D8- x8 | D8 z4 C8 | C4 D12 x4 | D4 D8 z4 x4 | D4 C6 D2 E8 x4 | D8 D16 | %18
w: Se- quen- tia-|a san-|* cti|* E-|van- ge-|li- i|se- cun * dum|Mar- cum,|
 z8 A,6 B,2 | C8 C6 B,2 | A,6 G,2 F,12 | F,6 G,2 A,2 B,2 C8 | D8 D16 | D12 C2 B,2 | A,4 G,8 A,4 | %25
w: Glo- ri-|a ti- bi|Do- mi- ne|Do- * * * *|mi- ne.|In * *|il- * lo|
 B,4 G,4 (3:2:2C8 D4 | E4 D4 C8 | z4 D4 D4 D4 x2 | D4 D4 C6 D2 x4 | E4 E4 D4 C2 B,2 x4 | A,8 G,8 | %31
w: * * tem- *|* po- re,|Ma- ri- a|Mag- da- le- *|na & Ma- * *|ri- a|
 z4 A,8 A,4 | A,4 A,4 G,4 G,4 x4 | C2 D2 E2 F2 G6 F2 x4 | E2 D2 C2 B,2 A,4 B,4 x4 | C8 A,4 B,4 | %36
w: Ia- co-|bi & Sa- lo-|me * * * e- *|* * * * * me-|runt a- ro-|
 C6 B,2 A,8 | G,4 C8 B,4 | C6 B,A, G,8 | C8 z4 C8 | B,4 C6 B,A, x4 | G,8 z4 C8 | B,4 C16- | C16 | %44
w: |ma- ta, vt|ve- ni * en-|tes vn-|ge- rent * *|* Ie-|* sum.||
 z8 z16 | z16 | z16 x8 | z16 | z8 F12 | F4 F8 z4 | C4 D4 C4 x6 | F12 E2 D2 x2 | C8 z4 F4 x8 | %53
w: ||||ve-|ni- unt|ad mo- nu-|men- * *|tum or-|
 F4 F4 D6 C2 | B,4 A,4 G,8 | F,8 z8 | z16 | z16 | z4 F4 F4 F4 | D16 | C4 B,4 C8 x4 | z4 F4 F4 F4 | %62
w: to iam so *||le,|||or- to iam|so-|* * le,|Et di- ci-|
 E8 D8 | C6 D2 E2 F2 G6 | F2 F8 E4 F8 | C6 B,2 A,4 A,4 | G,4 C8 B,4 | C4 C4 G,8 x4 | A,8 x14 | %69
w: bant ad|in- * * * *|* vi- * cem,|Quis re- vol- vet|no- * bis|la- pi- dem|ab|
 G,4 G,4 A,8 | G,4 C8 B,4 | C8 G,4 G6 | F2 E2 D2 C6 B,A, G,4 | A,4 G,8 x4 | F,8 z8 | z16 | z16 | %77
w: os- ti- o|mo- nu- men-||||ti?|||
 z16 | z8 C8 x4 | C4 C8 C4 | D8 C8 | D8 E8 x4 | F6 E2 C4 D4 x4 | G,8 A,4 F,4 | z4 F4 D4 C4 | %85
w: |E-|rat quip- pe|mag- nus|val- *||* * de|val- * *|
 B,8 x8 | A,4 D4 E4 F4 | F,4 G,4 x8 | B,16 x4 | C8 A,8 | G,16 | G,8 A,8 | G,16 | z16 | z16 | z16 | %96
w: |||||||de.||||
 z16 || z8 F8 | F8 F4 F4 | D8 E4 F8 | E4 D8 C8 x43/4 | B,4 C4 D8 x2 | z4 B,4 A,4 G,8 | %103
w: |Et|in- tro- e-|un- * *||* * tes|in mo- nu-|
 F,4 G,8 F,4 x4 | F4 x18 | F4 F4 F4 D6 x6 | E2 F8 D4 E4 x2 | D4 C8 A,8 | z16 x2 | z8 z4 D4 x2 | %110
w: * men- tum,|in|mo- nu- men- *||* * tum||se-|
 G8 D8 x6 | z8 z4 F8 | F4 F,4 G,4 z4 | F,4 x12 | B,16 x4 | G,4 G8 F2 E2 | D16 | G,4 C4- C4 B,4 | %118
w: den- tum|co-|o- per- tum|sto-|la|can- * * *|di-||
 C16 | A,16 | z16 x4 | z16 x12 | C8 C8 x2 | C8 C8 x2 | D16 x12 | C8 C8 x8 | C8 D8 x8 | C16 x8 | %128
w: |da,|||& ob-|stu- pu-|e-|runt, Qui|di- cent|il-|
 C8 z4 F4 x8 | F4 F4 F4 F4 x4 | D6 E2 F8 | z4 F8 F4 | D6 E2 F8 | z4 F8 F4 | D8 G8 | %135
w: lis, No-|li- te ex- pa-|ve- sce- re|ie- sum|que- ri- tis|Na- za-|re- num|
 G6 F2 E2 D2 C2 B,2 | A,6 B,2 C8 | A,8 D8 | z8 E8 | F16 | E16 | z8 D8 | D16 | C16 | C8 D4 E4 | %145
w: cru- * * * * *|ci- * *|fi- xum,|Sur-|rex-|it,|sur-|rex-|it|non * *|
 F8- F8 | D8 E8 | A,12 B,4 | C8 z8 | C8 C8 | C8 A,8 | z4 F8 E2 D2 | C4 D4 C4 F4 | D4 E4 F4 G4 | %154
w: ||est *|hic,|Ec- ce|lo- cus|V * *|bi po- su- e-|runt * * *|
 G2 F2 F8 E4 x4 | F8 F8 | F4 E2 D2 C8 x4 | z4 F8 F4 x4 | F4 F4 B,4 B,4 x4 | F8 z4 F,8 | %160
w: * * * e-|um, Sed|i- * * te,|di- ci-|te dis- ci- pu-|lis e-|
 F,4 G,12 x4 | A,2 B,2 C8 C8 | z8 C8 x8 | C4 C4 D8 x4 | E8 F8 x12 | F2 E2 D2 C2 x8 | B,4 D4 C8 | %167
w: ius &|* * Pe- tro,|qui-|a pre- ce-|det vos|in * * *|Ga- li- le-|
 z4 D6 E2 F2 D2 | E2 C2 F8 E4 | F6 ED C6 D2 | E2 D2 C2 B,2 A,8 | G,4 G,4 C8 | F,8 F,4 F,4 | %173
w: ||a, * * qui- a|* * * * pre-|ce- det vos|in Ga- li-|
 G,4 A,4 G,8 | C8 z8 x8 | F4 F4 G8 | F4 D4 E4 E4 x8 | D8 z8 | z8 F4 F4 x8 | G8 F4 D4 | E4 E4 D8 | %181
w: le- * *|a|i- bi e-|um vi- de- bi-|tis,|i- bi|e- um vi-|de- bi- tis|
 C8 D8 | C2 D2 E2 F2 G6 F2 | E8 A,6 B,2 | C16 | C16- | C16 | x16 | x16 |] %189
w: si- cut|di- * * * * *|xit vo- *||bis.||||
V:3
 F16 | G16 | A16 | G16 x2 | F8 G8 x14 | A12 G4 | G16 x8 | z8 F8 | G8 A8 x4 | G8 F8 x4 | G8 A8 | %11
w: Do-|mi-|bus||vo- *|bis- *|cum,|Et|cum spi-|ri- tu|* tu-|
w: |||||||||||
 G8 z8 x4 | A8 c8 x4 | G4 G4 B8 x4 | A16 x4 | z4 A8 A4 x4 | B4 B4 A16 | z4 A4 c6 B2 x8 | %18
w: o.|Se- quen-|ti- a san-|cti|E- van-|ge- li- i|se- cun- *|
w: |||||||
 G4 d6 A2 c4 | B8 x8 | A16- x4 | A16 x4 | z8 A6 B2 x8 | c8 c6 B2 | A6 G2 A8 | B12 A4 | A8 z8 | %27
w: dum Mar- * *||cum,||Glo- ri-|a ti- bi|Do- * *|* mi-|ne.|
w: |||||||||
 c8 c8 x2 | B8 A12 | A4 A16 | z4 A4 A4 A4 | A4 A4 x8 | c6 B2 G8 x4 | z8 z4 d8 | c4 f8 e8 | %35
w: In il-|lo tem-|po- re,|Ma- ri- a|Mag- da-|le- * na|&|Ma- ri- a|
w: ||||||||
 d4 d4 c4 c4 | d4 d4 c8 | z4 F4 x8 | G4 G4 F4 F4 | G8 F8 x4 | z8 z4 f4 | e4 c4 d8 x4 | c8 z8 x4 | %43
w: Ia- co- bi &|Sa- lo- me|e-|me- runt a- ro-|ma- ta|vt|ve- ni- en-|tes|
w: ||||||||
 z4 f4 e4 c4 | d8 c8 x8 | F8 G8 | F8 z16 | c8 f8 | e4 d8 c8 | B4 x12 | c8 c8 x2 | c4 c8 F4 x2 | %52
w: vn- ge- runt|Ie- *||sum,|Et val-|de ma- *||ne v-|na Sab- ba-|
w: |||||||||
 G8 F8 x8 | c12 c4 | c8 z4 c4 | c4 c4 c8 | A8"^[  ]" z8 | z16 | z16 | z4 f4 f4 f4 | g6 f2 e4 d8 | %61
w: to- rum|ve- ni-|unt ad|mo- nu- men-|tum|||or- to iam|so- * * *|
w: |||||||||
 c8 B4 x4 | c12 B2 A2 | G8 A4 B4 x2 | c4 F4 G8 x6 | z4 F4 F2 G2 A2 B2 | c8 G8 | A8 A4 G8 | %68
w: |||* * le,|& di * * *|ce- bant|ad in- vi|
w: |||||||
 A4 B4 c4 F8 x2 | z8 f4 f4 | e4 e4 f8 | c8 d4 d4 x2 | c8 x10 | z8 f8 | e4 e4 f8 | c4 c4 d8 | c16- | %77
w: * * * cem,|Quis re-|vol- vet no-|bis la- pi-|dem|ab|os- ti- o|mo- nu- men-|ti?|
w: |||||||||
 c16 | z8 c12 | B2 A2 G4 A8 | B4 c6 A2 B2 A2 | G2 F2 G8 F8 | z4 A8 G2 F2 x4 | c4 F8 G4 | A8 x8 | %85
w: |E-|* * rat quip-|pe ma- gnus val- *|* * * de|e- * *|rat quip- pe|mag-|
w: ||||||||
 G8 c8 | F8 z4 f4 | e4 d4 c4 B4 | A4 B6 A2 A8 | G4 x12 | A4 B8 c4 | d4 e4 x8 | f16 | e8 c8 | d16 | %95
w: nus val-|de val-|||||||||
w: ||||||||||
 c16- | c16 || c8 c8 | c4 c4 A8 | B6 A2 G4 (3:2:1d8 x8/3 | (3:2:1c4 c8 B4 c16 x/12 | z16 x2 | %102
w: de.||Et in-|tro- e- run||* * * tes||
w: |||||||
 z16 x4 | z4 g4 g4 g4 x4 | e6 f2 g4 f6 x4 | e2 d2 c2 e4 (3:2:2d8 c4 x6 | c8 B4 c8 | z4 c4 x12 | %108
w: |in mo *|||* * tum,|in|
w: |* * nu-|men * * *||||
 c4 c4 A4 B6 | c2 d4 c4 B4 c4 | A4 G8 F8 x2 | z4 A4 A4 A4 x4 | B4 B4 A8 | z8 z4 A4 | B8 A8 x4 | %115
w: mo- nu- men- *||* * tum,|vi- de- runt|iu- ve- nem|a|dex- tris|
w: |||||||
 z4 c8 c4 | c4 c4 x8 | d16 | c16 | B12 A4 | G8 F8 x4 | G16 x12 | F8 z4 F6 | G2 A2 B2 c4 f4 e4 | %124
w: co- o-|per- tum|sto-|la|can- *||di-|da &|* * * * ob- stu-|
w: |||||||||
 d8 c2 B2 A16 | z8 z16 | z8 G16 | A8 B8 x8 | G16 x8 | F8 z4 A4 x4 | A4 A4 F4 F4 | B6 B2 A8 | %132
w: pu- e * runt,||Qui|di- cit|il-|lis, No-|li- te ex- pa-|ve- sce- re,|
w: ||||||||
 z4 A8 F4 | B6 B2 A8 | z4 d8 c4 | f8 e8 | d8 c8 | F8 G8 | F16 | z8 c8 | c16 | c16 | z8 f8 | f16 | %144
w: Ie- sum|que- ri- tis|Na- za-|re- num|cru- ci-|fi- *|xum,|Sur-|rex-|it,|sur-|rex-|
w: ||||||||||||
 f16 | f12 e4 | d8 c8 | B8 c8 | F16 | G16 | F16 | z16 | z16 | z16 | z16 x4 | z16 | c8 c8 x4 | %157
w: it|non *||||est|hic,||||||Sed i-|
w: |||||||||||||
 c8 z4 c8 | c4 c4 c4 d4 x4 | d4 d4 c2 B2 x8 | A8 G4 c8 | B4 c12 x4 |"^*" B2 A2 G8 F12 | G4 A16 | %164
w: te, di-|ci- te dis- ci-|pu- lis * *|* e- jus|& Pe-|||
w: |||||||
 B8 A8 x12 | z16 | z16 | z16 | z16 | z16 | c8 c4 c4 | d8 e8 | f8 z4 f4 | e4 c4 d8 | c8 z16 | %175
w: * tro,||||||qui- a pre-|ce- det|vos in|Ga- li- le-|a|
w: |||||||||||
 c4 c4 d8 | c4 A4 B4 B4 x8 | A8 x8 | z16 x8 | c4 c4 d8 | c4 A4 B4 B4 | A8 z8 | c8 d8 | c8 F8 | %184
w: i- bi e-|um vi- de- bi-|tis,||i- bi e-|um vi- de- bi-|tis,|si- cut|di- xit|
w: |||||||||
 G16 | F16- | F16 | x16 | x16 |] %189
w: vo-|bis.||||
w: |||||
V:4
 F,16 | C,16 | F,16 | z8 C,8 x2 | D,8 C,8 x14 | F,12 C,4 | C,8 z8 x8 | C,8 D,8 | E,8 D,4 F,8 | %9
w: Do-|mi-|nus|vo-|bis *||cum,|Et cum|spi- ri- tu|
 E,4 F,4 D,4 E,8 | D,8 z8 | D,8 F,8 x4 | C,4 C,4 E,8 x4 | D,8- x12 | D,8 z4 A,,8 | A,,4 D,8 G,,8 | %16
w: * tu- * *|o,|Se- quen-|ti- a san-|cti|||
 D,8 z4 D,4 x8 | F,6 E,2 C,8 x8 | G,6 F,2 D,4 A,4 | G,8 x8 | D,16 x4 | z16 x4 | A,6 B,2 C8 x8 | %23
w: ||||||Glo- ri- a|
 C6 B,2 A,6 G,2 | F,6 E,2 D,8 | G,12 D,4 | D,16 | z4 C,6 B,,2 A,,6 | F,,2 G,,4 A,,6 B,,2 C,4 x2 | %29
w: ti- bi Do- *||* mi-|ne.|In * il-|* lo tem- * po-|
 D,4 A,,8 z4 x4 | D,4 D,4 D,4 D,4 | D,4 F,6 E,2 x4 | C,8 z4 G,8 | F,4 B,8 A,8 | D,4 D,4 A,8 x4 | %35
w: * re,|Ma- ri- a Mag-|da- le- *|na &|Ma- ri- a|Ia- co- bi|
 z4 G,4 A,4 A,4 | G,8 z4 C,4 | D,8 x8 | C,4 C,4 D,4 D,4 | C,8 z4 F,4 x4 | E,4 C,4 D,8 | C,8 z8 x4 | %42
w: & Sa- lo-|me e-|me-|runt a- ro- ma-|ta vt|ve- ni- en-|tes|
 z4 F,4 E,4 C,4 x4 | D,8 C,8 | z8 C,8 x8 | D,8 C,8 | z8 C,8 x8 | F,8 E,4 F,4 | %48
w: vn- ge- rens|Ie- sum,|Ie-|* sum,|Et|val- de ma-|
 D,2 E,2 F,2 G,2 A,4 F,6 x2 | G,2 E,4 D,8 x2 | C,6 D,2 E,4 F,6 | E,2 F,2 G,2 A,4 F,8 | %52
w: |* * ne|v- na * Sa-|* * * * ba-|
 E,4 F,8 F,12 | F,4 F,4 F,4 F,4 | F,4 x12 | F,8 F,8 | z4 F,4 F,4 F,4 | B,,8 z8 | z4 F,4 C,8 | %59
w: to- rum ve-|ni- unt ad mo-|nu-|men- tum|or- to iam||so- *|
 F,8 z4 B,4 | B,4 B,4 C4 B,8 | A,4 G,8 x4 | C,4 F,4 F,4 F,4 | G,6 F,2 D,4 G,4 x2 | C,4 D,4 C,8 x6 | %65
w: le, or-|to iam so- *||le, or- to iam|so- * * *|* * le,|
 z16 | z16 | z16 x4 | z16 x6 | F,4 F,4 E,4 E,4 | F,8 C,8 | D,4 D,4 C,8 x2 | z8 F,8 x2 | %73
w: ||||Quis re- vol- vet|no- bis|la- pi- dem|ab|
 E,4 E,4 F,8 | C,4 C,4 D,8 | C,8 G,8 | C,16- | C,16 | z8 C,8 x4 | C,4 C,8 C,4 | D,8 C,8 | %81
w: os- ti- o|mo- nu- men-|ti? *|||E-|rat quip- pe|mag- nus|
 D,8 E,8 x4 | F,16 x4 | z16 | z16 | z16 | z4 F,4 E,4 D,4 | C,4 B,,4 A,,4 D,4 | C,4 B,,8 C,4 x4 | %89
w: val- *|de||||val- * *|||
 D,4 E,4 x8 | F,4 G,8 F,2 E,2 | D,4 C,4 x8 | B,,16 | C,16 | z16 | z16 | C,16 || z8 F,8 | %98
w: |||||||de.|Et|
 F,8 F,4 F,4 | D,8 E,4 F,8 | E,4 D,8 C,8 x43/4 | F,8 z4 F,6 | G,2 A,2 F,2 x14 | G,8 C4 B,8 | %104
w: in- tro- e-|run- * *|* * tes|* in||* mo- nu-|
 C4 G,8 C6 x4 | B,2 G,4 A,4 B,6 x8 | A,2 G,8 F,4 E,4 x2 | D,8 C,8 x4 | F,8 x10 | z4 F,4 F,4 G,6 | %110
w: men * *||||tum,|in mo- nu-|
 F,2 E,2 D,2 F,4 G,4 E,4 x4 | F,4 C,8 F,8 | z4 F,4 F,4 F,4 | G,4 G,4 D,8 | z8 z4 D,4 x4 | G,8 D,8 | %116
w: * * * men- * *|* * tum,|vi- de- runt|iu- ve- num|a|dex- tris|
 z4 F,8 E,4 | A,8 x8 | G,16 | C,16 | G,6 F,2 G,4 D,4 x4 | E,4 C,4 D,8 x12 | C,16 x2 | F,8 F,8 x2 | %124
w: co- o-|per-|tum||sto- * * la|can- * di-|da,|& ob-|
 F,8 F,8 x12 | G,16 x8 | F,16 x8 | z8 z16 | z8 C,16 | F,8 B,,8 x4 | C,16 | F,8 z4 F,4 | %132
w: stu- pu-|e-|runt,||Qui|di- cit|il-|lis, No-|
 F,4 F,4 F,4 F,4 | B,,4 B,,4 F,8 | z4 F,8 F,4 | B,,4 B,,4 F,8 | z4 D,6 E,2 F,4 | B,,8 C,8 | %138
w: li- te ex- pa-|ve- sce- re,|Ie- sum|que- ri- tis|Na- * *|za- re-|
 G,8 C,8 | F,4 D,4 C,8 | D,8 B,,8 | z8 C,8 | F,16 | C,16 | z8 D,8 | B,,16 | F,16 | %147
w: num *|cru- ci- fi|* xum|Sur-|rex-|it,|sur-|rex-|it|
 F,6 E,2 D,4 C,4 | B,,2 C,2 D,2 E,2 F,8 | G,8 C,8 | D,16 | C,16 | z8 F,8 | F,8 F,8 | D,8 z4 F,8 | %155
w: non * * *|||est|hic,|Ec-|ce lo-|cus v-|
 F,4 F,4 F,4 x4 | G,8 A,4 B,8 | A,4 G,8 F,8 | F,8 F,8 x4 | F,8 z4 F,8 | F,4 F,4 F,4 G,4 x4 | %161
w: bi po- su-|e- runt e-|* * um,|Sed i-|te di-|ci- te dis- ci-|
 G,4 x16 | F,4 F,4 E,4 F,4 x8 | D,8 C,12 | C,4 C,8 F,16 | z16 | z16 | F,8 F,4 F,4 | G,8 A,8 | %169
w: pu-|lis e- ius &|Pe- tro,|& Pe- tro|||qui- a pre-|ce- det|
 B,8 z4 B,4 | A,4 F,4 G,8 | F,16 | z16 | z16 | z16 x8 | z16 | F,4 F,4 G,8 x8 | F,4 D,4 E,4 E,4 | %178
w: vos in|Gal- i- le-|a,|||||i- bi e-|um vi- de- bi-|
 D,8 z16 | F,4 F,4 x8 | G,8 F,4 D,4 | E,4 E,4 D,8 | z16 | z8 G,8 | A,8 G,8 | C,8 D,8 | C,16 | %187
w: tis,|i- bi|e- um vi-|de- bi- tis||si-|cut di-|xit *|vo-|
 F,16- | F,16 |] %189
w: bis.||

